//@author: vux
//@help: template for texture fx
//@tags: texture
//@credits: 

Texture2D<float3> texture2d : PREVIOUS;
float3 RHS;

SamplerState linearSampler : IMMUTABLE
{
    Filter = MIN_MAG_MIP_LINEAR;
    AddressU = Clamp;
    AddressV = Clamp;
};

struct psInput
{
	float4 p : SV_Position;
	float2 uv : TEXCOORD0;
};


float4 PS(psInput input) : SV_Target
{
	float3 dir = texture2d.Sample(linearSampler,input.uv);
	return dot(dir, RHS);
}

technique10 Process
{
	pass P0
	{
		SetPixelShader(CompileShader(ps_4_0,PS()));
	}
}



